X:82
T: Der Wein und das Wasser (Band 1), S. 229
N: P0857
O: Lothringen
S: PINCK, Louis: Verklingende Weisen, Bd 1, Metz 1928]
R: ???]
M: 3/8
L: 1/32
K: A
E4 | E4E4E2A2 | A8A3=c | =c2c2B4A4 | =G4G4
E4 | A4A2A2E4 | =F4F4D4 | E4E4
=G4 | =c6c2c4 | =c6d2e4 | d6e2=f4 | e8A4 | A12 | =G8
=c2c2 | B6=c2d4 | =c4B4A4 | G12 | A8

